megacd/_inc/system.svg

<svg xmlns="http://www.w3.org/2000/svg"><g fill="#fff"><path d="m147.503 2.294c1.297-2.166 3.32-2.166 3.32-2.166h60.328v13.423h-47.916l-2.6 3.609v9.092h50.516l-9.526 14.432h-40.99v12.989h50.516v13.278h-76.06c0-14.432 0-31.173 0-45.607z"/><path d="m351.436.128c1.589 0 1.589.146 2.743 1.443 15.155 20.784 31.462 43.876 47.048 65.669-8.371.145-13.711-.144-22.081 0l-9.958-13.567h-28.432l-9.092-12.123v25.69h-21.504c-.723 0-1.445-.721-1.445-1.443l.145-65.669m22.804 40.556h27.567l-19.773-27.133h-7.649z"/><path d="m235.541.128h60.041v13.423h-48.061c-2.166 0-2.743 0-3.175.721l-2.022 2.454-.289 33.339c0 3.32.289 3.608 2.023 3.608h32.906v-12.989h-16.165l9.671-14.432h29.298v41.276c-21.506-.143-54.556 0-76.062-.143-1.443 0-4.906-1.443-4.906-5.197l-.146-40.844 12.846-19.196c1.3-2.163 4.041-2.02 4.041-2.02z"/><path d="m529.535 5.757c14-3.32 28.866-5.052 42.866-1.443 10.824 2.597 20.782 10.103 24.679 20.638 6.063 16.309 1.732 34.207-4.329 49.793-9.958 23.958-25.401 45.462-43.153 64.226.286-24.247 0-48.35.143-72.597-.143-4.186.289-8.37-.577-12.412-1.589-9.237-10.537-16.309-19.773-16.309-22.949-.144-45.752 0-68.699 0 21.215-13.998 44.162-25.69 68.843-31.896z"/><path d="m406.567 83.26c16.021-16.741 33.63-32.041 52.968-44.741.146 37.238 0 74.617.146 111.998.288.288.722 1.011 1.011 1.3h69.42c2.311 0 4.62-.434 6.928-.866-5.051 5.772-10.969 10.535-16.741 15.441-25.98 21.361-55.421 39.401-87.751 48.927-19.341 5.341-41.424 8.804-59.753-1.154-1.73-1.3-6.636-3.32-3.607-5.774 26.556-24.967 55.997-49.359 82.844-74.038v-7.94c-31.753 22.372-64.66 48.062-93.956 68.557l-2.743 1.154 1.589-2.02c28.862-27.133 59.028-52.679 87.892-79.814l7.218-6.206v-6.495c-32.187 22.372-66.537 48.639-95.687 68.412 2.308-3.898 5.917-6.784 9.38-9.815 28.142-25.69 57.874-50.657 86.307-76.203v-6.063c-28.721 18.906-58.886 42.867-84.575 60.474 1.299-3.032 2.886-6.061 5.626-8.083 26.413-22.804 53.114-45.896 78.949-69.277v-5.772c-11.981 6.783-21.361 16.309-32.764 23.958-7.649 4.906-13.998 11.834-22.37 15.443 2.743-4.186 6.349-7.649 9.669-11.403z"/><path d="m490.422 67.096c0-1.877.145-3.751.577-5.485 8.228-.143 16.598 0 24.826-.143.577 1.586 1.009 3.174 1.009 4.906-.143 19.195 0 38.535 0 57.876.145 1.443-.866 2.741-1.586 3.897-7.217-.288-14.578 0-21.795-.145-1.731 0-3.32-1.155-3.031-3.032-.143-19.34 0-38.535 0-57.874z"/><path d="m307.129 86.437c14.288-4.908 29.298-8.372 44.453-7.94 10.246.289 20.781 2.888 29.007 9.526-26.987 25.835-55.997 51.093-83.42 76.783v6.494c27.712-19.629 57.876-41.998 81.977-59.751 4.04-2.888 7.938-5.917 12.267-8.371-2.164 3.752-5.772 6.063-8.804 8.949-25.687 23.812-51.811 47.193-77.646 70.863-2.743 2.597-5.34 5.051-7.794 8.083v3.752c31.463-21.793 63.505-44.597 95.109-66.101-2.02 2.452-4.474 4.618-6.783 6.784-29.007 26.555-59.317 52.39-88.326 79.091v5.772c25.114-18.041 52.39-37.813 74.328-53.545 3.318-2.309 6.495-4.763 10.101-6.64-.866 1.3-1.731 2.6-2.741 3.754-27.275 25.112-54.41 49.359-81.688 74.472v4.331c19.34-12.557 38.969-28.723 56.287-40.413-3.751 5.34-8.369 9.958-12.843 14.866-26.124 26.99-56.722 50.082-91.217 65.525-18.907 8.227-39.402 14.576-60.329 13.71-11.4-.432-23.669-3.897-31.461-12.7-8.083-8.949-9.96-21.938-8.517-33.628 2.02-16.743 8.949-32.475 17.32-46.907 9.381-16.02 20.781-31.03 33.916-44.308-.72 23.525-.143 47.194-.289 70.72 0 7.504-.72 15.875 3.898 22.515 3.463 4.763 8.948 8.515 15.154 8.515h69.277c0-14.289.146-28.432 0-42.576-9.237-.434-18.763-1.011-27.855.289-.145 5.772.289 11.546-.145 17.318-2.598 1.877-6.206.577-9.092 1.011-6.495-.434-13.133.866-19.341-.866.145-21.506 0-42.866 0-64.37 8.806-2.021 18.186-.289 27.135-.866.432.434 1.009.866 1.443 1.443v16.166c8.66 1.297 17.752.286 26.555.577.289-.289 1.012-.866 1.3-1.155 0-13.423 0-26.846 0-40.267-17.609-1.154-35.504-.145-53.256-.434-7.938-.288-16.021 0-23.815 1.3 2.309-2.597 4.763-5.197 7.506-7.506 25.835-23.092 55.565-42.576 88.329-54.265z"/><path d="m40.844 5.757c2.455-3.463 6.063-5.772 10.681-5.629 8.803-.288 17.607 0 26.555 0-.143 2.743-.143 4.475-.288 7.217 3.608-3.754 7.505-7.505 13.423-7.217 12.269-.288 24.392 0 36.658 0v67.257c-8.226 0-16.597 0-24.823 0 0-16.309 0-32.618 0-48.927-4.618-.432-6.929 3.751-8.949 6.928-9.092 14-18.473 27.71-26.99 41.999-8.803.145-17.463.145-26.121 0 10.392-16.886 21.649-33.195 32.327-49.793-5.483.288-12.555-1.443-16.597 3.031-10.247 15.443-20.35 31.175-30.596 46.762-8.66 0-17.464 0-26.124 0 13.566-20.638 27.278-41.133 40.844-61.628z"/></g></svg>

<?xml version="1.0" encoding="utf-8"?>
<svg version="1.2" xmlns="http://www.w3.org/2000/svg">
  <path style="fill:#ffffff;fill-opacity:1;fill-rule:nonzero;stroke:none" d="M 147.503 2.294 C 148.8 0.128 150.823 0.128 150.823 0.128 L 211.151 0.128 L 211.151 13.551 L 163.235 13.551 L 160.635 17.16 L 160.635 26.252 L 211.151 26.252 L 201.625 40.684 L 160.635 40.684 L 160.635 53.673 L 211.151 53.673 L 211.151 66.951 L 135.091 66.951 C 135.091 52.519 135.091 35.778 135.091 21.344 Z" id="path4170"/>
  <path style="fill:#ffffff;fill-opacity:1;fill-rule:nonzero;stroke:none" d="M 351.436 0.128 C 353.025 0.128 353.025 0.274 354.179 1.571 C 369.334 22.355 385.641 45.447 401.227 67.24 C 392.856 67.385 387.516 67.096 379.146 67.24 L 369.188 53.673 L 340.756 53.673 L 331.664 41.55 L 331.664 67.24 L 310.16 67.24 C 309.437 67.24 308.715 66.519 308.715 65.797 L 308.86 0.128 M 331.664 40.684 L 359.231 40.684 L 339.458 13.551 L 331.809 13.551 Z" id="path4172"/>
  <path style="fill:#ffffff;fill-opacity:1;fill-rule:nonzero;stroke:none" d="M 235.541 0.128 L 295.582 0.128 L 295.582 13.551 L 247.521 13.551 C 245.355 13.551 244.778 13.551 244.346 14.272 L 242.324 16.726 L 242.035 50.065 C 242.035 53.385 242.324 53.673 244.058 53.673 L 276.964 53.673 L 276.964 40.684 L 260.799 40.684 L 270.47 26.252 L 299.768 26.252 L 299.768 67.528 C 278.262 67.385 245.212 67.528 223.706 67.385 C 222.263 67.385 218.8 65.942 218.8 62.188 L 218.654 21.344 L 231.5 2.148 C 232.8 -0.015 235.541 0.128 235.541 0.128 Z" id="path4174"/>
  <path style="fill-opacity: 1; fill-rule: nonzero; stroke: none; fill: rgb(255, 255, 255);" d="M 529.535 5.757 C 543.535 2.437 558.401 0.705 572.401 4.314 C 583.225 6.911 593.183 14.417 597.08 24.952 C 603.143 41.261 598.812 59.159 592.751 74.745 C 582.793 98.703 567.35 120.207 549.598 138.971 C 549.884 114.724 549.598 90.621 549.741 66.374 C 549.598 62.188 550.03 58.004 549.164 53.962 C 547.575 44.725 538.627 37.653 529.391 37.653 C 506.442 37.509 483.639 37.653 460.692 37.653 C 481.907 23.655 504.854 11.963 529.535 5.757 Z" id="path4176"/>
  <path style="fill-opacity: 1; fill-rule: nonzero; stroke: none; fill: rgb(255, 255, 255);" d="M 406.567 83.26 C 422.588 66.519 440.197 51.219 459.535 38.519 C 459.681 75.757 459.535 113.136 459.681 150.517 C 459.969 150.805 460.403 151.528 460.692 151.817 C 483.927 151.817 507.02 151.817 530.112 151.817 C 532.423 151.817 534.732 151.383 537.04 150.951 C 531.989 156.723 526.071 161.486 520.299 166.392 C 494.319 187.753 464.878 205.793 432.548 215.319 C 413.207 220.66 391.124 224.123 372.795 214.165 C 371.065 212.865 366.159 210.845 369.188 208.391 C 395.744 183.424 425.185 159.032 452.032 134.353 L 452.032 126.413 C 420.279 148.785 387.372 174.475 358.076 194.97 L 355.333 196.124 L 356.922 194.104 C 385.784 166.971 415.95 141.425 444.814 114.29 L 452.032 108.084 L 452.032 101.589 C 419.845 123.961 385.495 150.228 356.345 170.001 C 358.653 166.103 362.262 163.217 365.725 160.186 C 393.867 134.496 423.599 109.529 452.032 83.983 L 452.032 77.92 C 423.311 96.826 393.146 120.787 367.457 138.394 C 368.756 135.362 370.343 132.333 373.083 130.311 C 399.496 107.507 426.197 84.415 452.032 61.034 L 452.032 55.262 C 440.051 62.045 430.671 71.571 419.268 79.22 C 411.619 84.126 405.27 91.054 396.898 94.663 C 399.641 90.477 403.247 87.014 406.567 83.26 Z" id="path4178"/>
  <path style="fill-opacity: 1; fill-rule: nonzero; stroke: none; fill: rgb(255, 255, 255);" d="M 490.422 67.096 C 490.422 65.219 490.567 63.345 490.999 61.611 C 499.227 61.468 507.597 61.611 515.825 61.468 C 516.402 63.054 516.834 64.642 516.834 66.374 C 516.691 85.569 516.834 104.909 516.834 124.25 C 516.979 125.693 515.968 126.991 515.248 128.147 C 508.031 127.859 500.67 128.147 493.453 128.002 C 491.722 128.002 490.133 126.847 490.422 124.97 C 490.279 105.63 490.422 86.435 490.422 67.096 Z" id="path4180"/>
  <path style="fill-opacity: 1; fill-rule: nonzero; stroke: none; fill: rgb(255, 255, 255);" d="M 307.129 86.437 C 321.417 81.529 336.427 78.065 351.582 78.497 C 361.828 78.786 372.363 81.385 380.589 88.023 C 353.602 113.858 324.592 139.116 297.169 164.806 L 297.169 171.3 C 324.881 151.671 355.045 129.302 379.146 111.549 C 383.186 108.661 387.084 105.632 391.413 103.178 C 389.249 106.93 385.641 109.241 382.609 112.127 C 356.922 135.939 330.798 159.32 304.963 182.99 C 302.22 185.587 299.623 188.041 297.169 191.073 L 297.169 194.825 C 328.632 173.032 360.674 150.228 392.278 128.724 C 390.258 131.176 387.804 133.342 385.495 135.508 C 356.488 162.063 326.178 187.898 297.169 214.599 L 297.169 220.371 C 322.283 202.33 349.559 182.558 371.497 166.826 C 374.815 164.517 377.992 162.063 381.598 160.186 C 380.732 161.486 379.867 162.786 378.857 163.94 C 351.582 189.052 324.447 213.299 297.169 238.412 L 297.169 242.743 C 316.509 230.186 336.138 214.02 353.456 202.33 C 349.705 207.67 345.087 212.288 340.613 217.196 C 314.489 244.186 283.891 267.278 249.396 282.721 C 230.489 290.948 209.994 297.297 189.067 296.431 C 177.667 295.999 165.398 292.534 157.606 283.731 C 149.523 274.782 147.646 261.793 149.089 250.103 C 151.109 233.36 158.038 217.628 166.409 203.196 C 175.79 187.176 187.19 172.166 200.325 158.888 C 199.605 182.413 200.182 206.082 200.036 229.608 C 200.036 237.112 199.316 245.483 203.934 252.123 C 207.397 256.886 212.882 260.638 219.088 260.638 C 242.181 260.638 265.273 260.638 288.365 260.638 C 288.365 246.349 288.511 232.206 288.365 218.062 C 279.128 217.628 269.602 217.051 260.51 218.351 C 260.365 224.123 260.799 229.897 260.365 235.669 C 257.767 237.546 254.159 236.246 251.273 236.68 C 244.778 236.246 238.14 237.546 231.932 235.814 C 232.077 214.308 231.932 192.948 231.932 171.444 C 240.738 169.423 250.118 171.155 259.067 170.578 C 259.499 171.012 260.076 171.444 260.51 172.021 C 260.51 177.361 260.51 182.701 260.51 188.187 C 269.17 189.484 278.262 188.473 287.065 188.764 C 287.354 188.475 288.077 187.898 288.365 187.609 C 288.365 174.186 288.365 160.763 288.365 147.342 C 270.756 146.188 252.861 147.197 235.109 146.908 C 227.171 146.62 219.088 146.908 211.294 148.208 C 213.603 145.611 216.057 143.011 218.8 140.702 C 244.635 117.61 274.365 98.126 307.129 86.437 Z" id="path4182"/>
  <path style="fill:#ffffff;fill-opacity:1;fill-rule:nonzero;stroke:none" d="M 40.844 5.757 C 43.299 2.294 46.907 -0.015 51.525 0.128 C 60.328 -0.16 69.132 0.128 78.08 0.128 C 77.937 2.871 77.937 4.603 77.792 7.345 C 81.4 3.591 85.297 -0.16 91.215 0.128 C 103.484 -0.16 115.607 0.128 127.873 0.128 C 127.873 22.789 127.873 44.581 127.873 67.385 C 119.647 67.385 111.276 67.385 103.05 67.385 C 103.05 51.076 103.05 34.767 103.05 18.458 C 98.432 18.026 96.121 22.209 94.101 25.386 C 85.009 39.386 75.628 53.096 67.111 67.385 C 58.308 67.53 49.648 67.53 40.99 67.385 C 51.382 50.499 62.639 34.19 73.317 17.592 C 67.834 17.88 60.762 16.149 56.72 20.623 C 46.473 36.066 36.37 51.798 26.124 67.385 C 17.464 67.385 8.66 67.385 0 67.385 C 13.566 46.747 27.278 26.252 40.844 5.757 Z" id="path4184"/>
</svg>
